X: 108
T:Mowes Yseldyryow
M:3/4
L:1/8
R:waltz
Z:bil@blueskiesink.com
K:G
D2|G3 A Bc|d2 G2 d2|B2G2B2|A2F2D2|G2 A Bc|d2 B2 dc|B2G2A2|G4 d|
e2c2e2|d2B2d2|BA GA BG|A2F2D2|G2 A Bc|d2G2 dc|B2G2A2|G6||

